svg/banks/card-recharge/idbank-transfer.svg

<svg width="100" height="100" viewBox="0 0 100 100" fill="none" xmlns="http://www.w3.org/2000/svg">
<g clip-path="url(#clip0_91_52515)">
<foreignObject x="19.375" y="-30.625" width="112.543" height="109.422"><div xmlns="http://www.w3.org/1999/xhtml" style="backdrop-filter:blur(20px);clip-path:url(#bgblur_1_91_52515_clip_path);height:100%;width:100%"></div></foreignObject><path data-figma-bg-blur-radius="40" d="M78.125 21.875V26.8311L75 23.7061L70.5811 28.125L81.25 38.7939L91.9189 28.125L87.5 23.7061L84.375 26.8311V21.875C84.375 14.9826 78.7689 9.375 71.875 9.375H59.375V15.625H71.875C75.3204 15.625 78.125 18.428 78.125 21.875Z" fill="#F5821E" fill-opacity="0.7"/>
<path d="M18.751 74.9971V70.041L21.876 73.166L26.2949 68.7471L15.626 58.0781L4.95703 68.7471L9.37598 73.166L12.501 70.041V74.9971C12.501 81.8895 18.1071 87.4971 25.001 87.4971H37.501V81.2471H25.001C21.5555 81.2471 18.751 78.444 18.751 74.9971Z" fill="#F5821E"/>
<foreignObject x="2.79883" y="-2" width="46.4473" height="22.3984"><div xmlns="http://www.w3.org/1999/xhtml" style="backdrop-filter:blur(2px);clip-path:url(#bgblur_2_91_52515_clip_path);height:100%;width:100%"></div></foreignObject><path data-figma-bg-blur-radius="4" d="M43.7293 11.7676L27.1895 2.31641C26.4512 1.89453 25.5465 1.89453 24.8083 2.31641L8.00826 11.9164C7.06373 12.4566 6.59966 13.5641 6.87974 14.6164C7.15865 15.6676 8.11021 16.4 9.19888 16.4H42.7989C42.8129 16.3977 42.8317 16.3988 42.8458 16.4C44.1723 16.4 45.2458 15.3254 45.2458 14C45.2458 12.9863 44.6176 12.1191 43.7293 11.7676Z" fill="#F5821E" fill-opacity="0.7"/>
<foreignObject x="3" y="14.7969" width="18" height="31.8438"><div xmlns="http://www.w3.org/1999/xhtml" style="backdrop-filter:blur(2px);clip-path:url(#bgblur_3_91_52515_clip_path);height:100%;width:100%"></div></foreignObject><path data-figma-bg-blur-radius="4" d="M15 18.7969H9C7.89551 18.7969 7 19.8715 7 21.1969V40.2445C7 41.5699 7.89551 42.6445 9 42.6445H15C16.1045 42.6445 17 41.5699 17 40.2445V21.1969C17 19.8715 16.1045 18.7969 15 18.7969Z" fill="#F5821E" fill-opacity="0.7"/>
<foreignObject x="17" y="14.7969" width="18" height="31.8516"><div xmlns="http://www.w3.org/1999/xhtml" style="backdrop-filter:blur(2px);clip-path:url(#bgblur_4_91_52515_clip_path);height:100%;width:100%"></div></foreignObject><path data-figma-bg-blur-radius="4" d="M29 18.7969H23C21.8955 18.7969 21 19.8715 21 21.1969V40.2445C21 41.5699 21.8955 42.6445 23 42.6445H29C30.1045 42.6445 31 41.5699 31 40.2445V21.1969C31 19.8715 30.1045 18.7969 29 18.7969Z" fill="#F5821E" fill-opacity="0.7"/>
<foreignObject x="31" y="14.7969" width="18" height="31.8516"><div xmlns="http://www.w3.org/1999/xhtml" style="backdrop-filter:blur(2px);clip-path:url(#bgblur_5_91_52515_clip_path);height:100%;width:100%"></div></foreignObject><path data-figma-bg-blur-radius="4" d="M43 18.7969H37C35.8945 18.7969 35 19.8715 35 21.1969V40.2445C35 41.5699 35.8945 42.6445 37 42.6445H43C44.1055 42.6445 45 41.5699 45 40.2445V21.1969C45 19.8715 44.1055 18.7969 43 18.7969Z" fill="#F5821E" fill-opacity="0.7"/>
<path d="M45.2 11.6016H6.8C4.15273 11.6016 2 13.7543 2 16.4016V18.8016C2 21.4488 4.15273 23.6016 6.8 23.6016H45.2C47.8461 23.6016 50 21.4488 50 18.8016V16.4016C50 13.7543 47.8461 11.6016 45.2 11.6016Z" fill="#F5821E"/>
<path d="M42.8 38H9.2C5.22969 38 2 41.2297 2 45.2V47.6C2 48.9254 3.07461 50 4.4 50H47.6C48.9266 50 50 48.9254 50 47.6V45.2C50 41.2297 46.7703 38 42.8 38Z" fill="#F5821E"/>
<foreignObject x="46.498" y="38" width="52.0547" height="24.5"><div xmlns="http://www.w3.org/1999/xhtml" style="backdrop-filter:blur(2px);clip-path:url(#bgblur_6_91_52515_clip_path);height:100%;width:100%"></div></foreignObject><path data-figma-bg-blur-radius="4" d="M92.8143 53.192L73.8624 42.3625C73.0164 41.8792 71.9798 41.8792 71.1338 42.3625L51.8839 53.3625C50.8016 53.9816 50.2698 55.2505 50.5908 56.4563C50.9103 57.6608 52.0007 58.5 53.2481 58.5H91.7481C91.7642 58.4973 91.7857 58.4987 91.8018 58.5C93.3218 58.5 94.5518 57.2687 94.5518 55.75C94.5518 54.5885 93.8321 53.5948 92.8143 53.192Z" fill="#F5821E" fill-opacity="0.7"/>
<foreignObject x="49" y="57" width="18" height="36"><div xmlns="http://www.w3.org/1999/xhtml" style="backdrop-filter:blur(2px);clip-path:url(#bgblur_7_91_52515_clip_path);height:100%;width:100%"></div></foreignObject><path data-figma-bg-blur-radius="4" d="M61 61H55C53.8955 61 53 62.2617 53 63.8179V86.1821C53 87.7383 53.8955 89 55 89H61C62.1045 89 63 87.7383 63 86.1821V63.8179C63 62.2617 62.1045 61 61 61Z" fill="#F5821E" fill-opacity="0.7"/>
<foreignObject x="77" y="57" width="18" height="36"><div xmlns="http://www.w3.org/1999/xhtml" style="backdrop-filter:blur(2px);clip-path:url(#bgblur_8_91_52515_clip_path);height:100%;width:100%"></div></foreignObject><path data-figma-bg-blur-radius="4" d="M89 61H83C81.8945 61 81 62.2617 81 63.8179V86.1821C81 87.7383 81.8945 89 83 89H89C90.1055 89 91 87.7383 91 86.1821V63.8179C91 62.2617 90.1055 61 89 61Z" fill="#F5821E" fill-opacity="0.7"/>
<foreignObject x="63" y="58" width="18" height="36"><div xmlns="http://www.w3.org/1999/xhtml" style="backdrop-filter:blur(2px);clip-path:url(#bgblur_9_91_52515_clip_path);height:100%;width:100%"></div></foreignObject><path data-figma-bg-blur-radius="4" d="M75 62H69C67.8945 62 67 63.2617 67 64.8179V87.1821C67 88.7383 67.8945 90 69 90H75C76.1055 90 77 88.7383 77 87.1821V64.8179C77 63.2617 76.1055 62 75 62Z" fill="#F5821E" fill-opacity="0.7"/>
<path d="M94.5 53H50.5C47.4667 53 45 55.4667 45 58.5V61.25C45 64.2833 47.4667 66.75 50.5 66.75H94.5C97.532 66.75 100 64.2833 100 61.25V58.5C100 55.4667 97.532 53 94.5 53Z" fill="#F5821E"/>
<path d="M91.75 83.25H53.25C48.7007 83.25 45 86.9507 45 91.5V94.25C45 95.7687 46.2313 97 47.75 97H97.25C98.77 97 100 95.7687 100 94.25V91.5C100 86.9507 96.2993 83.25 91.75 83.25Z" fill="#F5821E"/>
</g>
<defs>
<clipPath id="bgblur_1_91_52515_clip_path" transform="translate(-19.375 30.625)"><path d="M78.125 21.875V26.8311L75 23.7061L70.5811 28.125L81.25 38.7939L91.9189 28.125L87.5 23.7061L84.375 26.8311V21.875C84.375 14.9826 78.7689 9.375 71.875 9.375H59.375V15.625H71.875C75.3204 15.625 78.125 18.428 78.125 21.875Z"/>
</clipPath><clipPath id="bgblur_2_91_52515_clip_path" transform="translate(-2.79883 2)"><path d="M43.7293 11.7676L27.1895 2.31641C26.4512 1.89453 25.5465 1.89453 24.8083 2.31641L8.00826 11.9164C7.06373 12.4566 6.59966 13.5641 6.87974 14.6164C7.15865 15.6676 8.11021 16.4 9.19888 16.4H42.7989C42.8129 16.3977 42.8317 16.3988 42.8458 16.4C44.1723 16.4 45.2458 15.3254 45.2458 14C45.2458 12.9863 44.6176 12.1191 43.7293 11.7676Z"/>
</clipPath><clipPath id="bgblur_3_91_52515_clip_path" transform="translate(-3 -14.7969)"><path d="M15 18.7969H9C7.89551 18.7969 7 19.8715 7 21.1969V40.2445C7 41.5699 7.89551 42.6445 9 42.6445H15C16.1045 42.6445 17 41.5699 17 40.2445V21.1969C17 19.8715 16.1045 18.7969 15 18.7969Z"/>
</clipPath><clipPath id="bgblur_4_91_52515_clip_path" transform="translate(-17 -14.7969)"><path d="M29 18.7969H23C21.8955 18.7969 21 19.8715 21 21.1969V40.2445C21 41.5699 21.8955 42.6445 23 42.6445H29C30.1045 42.6445 31 41.5699 31 40.2445V21.1969C31 19.8715 30.1045 18.7969 29 18.7969Z"/>
</clipPath><clipPath id="bgblur_5_91_52515_clip_path" transform="translate(-31 -14.7969)"><path d="M43 18.7969H37C35.8945 18.7969 35 19.8715 35 21.1969V40.2445C35 41.5699 35.8945 42.6445 37 42.6445H43C44.1055 42.6445 45 41.5699 45 40.2445V21.1969C45 19.8715 44.1055 18.7969 43 18.7969Z"/>
</clipPath><clipPath id="bgblur_6_91_52515_clip_path" transform="translate(-46.498 -38)"><path d="M92.8143 53.192L73.8624 42.3625C73.0164 41.8792 71.9798 41.8792 71.1338 42.3625L51.8839 53.3625C50.8016 53.9816 50.2698 55.2505 50.5908 56.4563C50.9103 57.6608 52.0007 58.5 53.2481 58.5H91.7481C91.7642 58.4973 91.7857 58.4987 91.8018 58.5C93.3218 58.5 94.5518 57.2687 94.5518 55.75C94.5518 54.5885 93.8321 53.5948 92.8143 53.192Z"/>
</clipPath><clipPath id="bgblur_7_91_52515_clip_path" transform="translate(-49 -57)"><path d="M61 61H55C53.8955 61 53 62.2617 53 63.8179V86.1821C53 87.7383 53.8955 89 55 89H61C62.1045 89 63 87.7383 63 86.1821V63.8179C63 62.2617 62.1045 61 61 61Z"/>
</clipPath><clipPath id="bgblur_8_91_52515_clip_path" transform="translate(-77 -57)"><path d="M89 61H83C81.8945 61 81 62.2617 81 63.8179V86.1821C81 87.7383 81.8945 89 83 89H89C90.1055 89 91 87.7383 91 86.1821V63.8179C91 62.2617 90.1055 61 89 61Z"/>
</clipPath><clipPath id="bgblur_9_91_52515_clip_path" transform="translate(-63 -58)"><path d="M75 62H69C67.8945 62 67 63.2617 67 64.8179V87.1821C67 88.7383 67.8945 90 69 90H75C76.1055 90 77 88.7383 77 87.1821V64.8179C77 63.2617 76.1055 62 75 62Z"/>
</clipPath><clipPath id="clip0_91_52515">
<rect width="100" height="100" fill="white"/>
</clipPath>
</defs>
</svg>

<svg width="100" height="100" fill="none" xmlns="http://www.w3.org/2000/svg"><g clip-path="url(#a)"><g filter="url(#b)"><path d="M78.125 21.875v4.956L75 23.706l-4.419 4.419L81.25 38.794l10.669-10.669-4.419-4.419-3.125 3.125v-4.956c0-6.892-5.606-12.5-12.5-12.5h-12.5v6.25h12.5a6.257 6.257 0 0 1 6.25 6.25Z" fill="#F5821E" fill-opacity=".7"/></g><path d="M18.751 75.001v-4.956l3.125 3.125 4.419-4.419-10.669-10.669L4.957 68.751l4.419 4.419 3.125-3.125V75c0 6.892 5.606 12.5 12.5 12.5h12.5v-6.25h-12.5a6.257 6.257 0 0 1-6.25-6.25Z" fill="#F5821E"/><g filter="url(#c)"><path d="M43.73 11.768 27.19 2.316a2.398 2.398 0 0 0-2.382 0l-16.8 9.6a2.4 2.4 0 0 0 1.19 4.484h33.6a2.4 2.4 0 0 0 .93-4.632Z" fill="#F5821E" fill-opacity=".7"/></g><g filter="url(#d)"><path d="M15 18.8H9c-1.104 0-2 1.075-2 2.4v19.048c0 1.326.896 2.4 2 2.4h6c1.105 0 2-1.074 2-2.4V21.201c0-1.326-.895-2.4-2-2.4Z" fill="#F5821E" fill-opacity=".7"/></g><g filter="url(#e)"><path d="M29 18.8h-6c-1.105 0-2 1.075-2 2.4v19.048c0 1.326.895 2.4 2 2.4h6c1.105 0 2-1.074 2-2.4V21.201c0-1.326-.895-2.4-2-2.4Z" fill="#F5821E" fill-opacity=".7"/></g><g filter="url(#f)"><path d="M43 18.8h-6c-1.105 0-2 1.075-2 2.4v19.048c0 1.326.895 2.4 2 2.4h6c1.105 0 2-1.074 2-2.4V21.201c0-1.326-.895-2.4-2-2.4Z" fill="#F5821E" fill-opacity=".7"/></g><path d="M45.2 11.6H6.8A4.805 4.805 0 0 0 2 16.4v2.4c0 2.647 2.153 4.8 4.8 4.8h38.4c2.646 0 4.8-2.153 4.8-4.8v-2.4c0-2.648-2.154-4.8-4.8-4.8ZM42.8 38H9.2C5.23 38 2 41.23 2 45.2v2.4A2.4 2.4 0 0 0 4.4 50h43.2a2.4 2.4 0 0 0 2.4-2.4v-2.4c0-3.97-3.23-7.2-7.2-7.2Z" fill="#F5821E"/><g filter="url(#g)"><path d="m92.814 53.192-18.952-10.83a2.749 2.749 0 0 0-2.728 0l-19.25 11a2.75 2.75 0 0 0 1.364 5.138h38.5a2.75 2.75 0 0 0 1.066-5.308Z" fill="#F5821E" fill-opacity=".7"/></g><g filter="url(#h)"><path d="M61 61h-6c-1.105 0-2 1.262-2 2.818v22.364c0 1.556.895 2.818 2 2.818h6c1.105 0 2-1.262 2-2.818V63.818C63 62.262 62.105 61 61 61Z" fill="#F5821E" fill-opacity=".7"/></g><g filter="url(#i)"><path d="M89 61h-6c-1.106 0-2 1.262-2 2.818v22.364c0 1.556.894 2.818 2 2.818h6c1.106 0 2-1.262 2-2.818V63.818C91 62.262 90.106 61 89 61Z" fill="#F5821E" fill-opacity=".7"/></g><g filter="url(#j)"><path d="M75 62h-6c-1.106 0-2 1.262-2 2.818v22.364c0 1.556.894 2.818 2 2.818h6c1.106 0 2-1.262 2-2.818V64.818C77 63.262 76.106 62 75 62Z" fill="#F5821E" fill-opacity=".7"/></g><path d="M94.5 53h-44a5.505 5.505 0 0 0-5.5 5.5v2.75c0 3.033 2.467 5.5 5.5 5.5h44c3.032 0 5.5-2.467 5.5-5.5V58.5c0-3.033-2.468-5.5-5.5-5.5Zm-2.75 30.25h-38.5c-4.55 0-8.25 3.7-8.25 8.25v2.75A2.75 2.75 0 0 0 47.75 97h49.5a2.75 2.75 0 0 0 2.75-2.75V91.5c0-4.55-3.7-8.25-8.25-8.25Z" fill="#F5821E"/></g><defs><filter id="b" x="19.375" y="-30.625" width="112.544" height="109.419" filterUnits="userSpaceOnUse" color-interpolation-filters="sRGB"><feFlood flood-opacity="0" result="BackgroundImageFix"/><feGaussianBlur in="BackgroundImageFix" stdDeviation="20"/><feComposite in2="SourceAlpha" operator="in" result="effect1_backgroundBlur_3088_9213"/><feBlend in="SourceGraphic" in2="effect1_backgroundBlur_3088_9213" result="shape"/></filter><filter id="c" x="2.799" y="-2" width="46.447" height="22.4" filterUnits="userSpaceOnUse" color-interpolation-filters="sRGB"><feFlood flood-opacity="0" result="BackgroundImageFix"/><feGaussianBlur in="BackgroundImageFix" stdDeviation="2"/><feComposite in2="SourceAlpha" operator="in" result="effect1_backgroundBlur_3088_9213"/><feBlend in="SourceGraphic" in2="effect1_backgroundBlur_3088_9213" result="shape"/></filter><filter id="d" x="3" y="14.801" width="18" height="31.848" filterUnits="userSpaceOnUse" color-interpolation-filters="sRGB"><feFlood flood-opacity="0" result="BackgroundImageFix"/><feGaussianBlur in="BackgroundImageFix" stdDeviation="2"/><feComposite in2="SourceAlpha" operator="in" result="effect1_backgroundBlur_3088_9213"/><feBlend in="SourceGraphic" in2="effect1_backgroundBlur_3088_9213" result="shape"/></filter><filter id="e" x="17" y="14.801" width="18" height="31.848" filterUnits="userSpaceOnUse" color-interpolation-filters="sRGB"><feFlood flood-opacity="0" result="BackgroundImageFix"/><feGaussianBlur in="BackgroundImageFix" stdDeviation="2"/><feComposite in2="SourceAlpha" operator="in" result="effect1_backgroundBlur_3088_9213"/><feBlend in="SourceGraphic" in2="effect1_backgroundBlur_3088_9213" result="shape"/></filter><filter id="f" x="31" y="14.801" width="18" height="31.848" filterUnits="userSpaceOnUse" color-interpolation-filters="sRGB"><feFlood flood-opacity="0" result="BackgroundImageFix"/><feGaussianBlur in="BackgroundImageFix" stdDeviation="2"/><feComposite in2="SourceAlpha" operator="in" result="effect1_backgroundBlur_3088_9213"/><feBlend in="SourceGraphic" in2="effect1_backgroundBlur_3088_9213" result="shape"/></filter><filter id="g" x="46.498" y="38" width="52.054" height="24.5" filterUnits="userSpaceOnUse" color-interpolation-filters="sRGB"><feFlood flood-opacity="0" result="BackgroundImageFix"/><feGaussianBlur in="BackgroundImageFix" stdDeviation="2"/><feComposite in2="SourceAlpha" operator="in" result="effect1_backgroundBlur_3088_9213"/><feBlend in="SourceGraphic" in2="effect1_backgroundBlur_3088_9213" result="shape"/></filter><filter id="h" x="49" y="57" width="18" height="36" filterUnits="userSpaceOnUse" color-interpolation-filters="sRGB"><feFlood flood-opacity="0" result="BackgroundImageFix"/><feGaussianBlur in="BackgroundImageFix" stdDeviation="2"/><feComposite in2="SourceAlpha" operator="in" result="effect1_backgroundBlur_3088_9213"/><feBlend in="SourceGraphic" in2="effect1_backgroundBlur_3088_9213" result="shape"/></filter><filter id="i" x="77" y="57" width="18" height="36" filterUnits="userSpaceOnUse" color-interpolation-filters="sRGB"><feFlood flood-opacity="0" result="BackgroundImageFix"/><feGaussianBlur in="BackgroundImageFix" stdDeviation="2"/><feComposite in2="SourceAlpha" operator="in" result="effect1_backgroundBlur_3088_9213"/><feBlend in="SourceGraphic" in2="effect1_backgroundBlur_3088_9213" result="shape"/></filter><filter id="j" x="63" y="58" width="18" height="36" filterUnits="userSpaceOnUse" color-interpolation-filters="sRGB"><feFlood flood-opacity="0" result="BackgroundImageFix"/><feGaussianBlur in="BackgroundImageFix" stdDeviation="2"/><feComposite in2="SourceAlpha" operator="in" result="effect1_backgroundBlur_3088_9213"/><feBlend in="SourceGraphic" in2="effect1_backgroundBlur_3088_9213" result="shape"/></filter><clipPath id="a"><path fill="#fff" d="M0 0h100v100H0z"/></clipPath></defs></svg>
